img/logo.svg

<svg fill="none" height="33" viewBox="0 0 247 33" width="247" xmlns="http://www.w3.org/2000/svg"><path clip-rule="evenodd" d="m17.9106 23.72h-13.49471v4.7394h13.35611c2.7263 0 4.6845-.7446 5.9593-2.0471 1.2732-1.3009 1.8169-3.1095 1.8169-5.1399 0-1.7221-.3809-3.5388-1.6253-4.9261-1.2504-1.3939-3.3191-2.2957-6.5668-2.2957h-5.4759c-1.3199 0-2.08998-.3257-2.53175-.7602-.44085-.4335-.60906-1.0289-.60906-1.6874 0-.7534.21535-1.3531.63495-1.76542.41989-.4126 1.08986-.6823 2.08996-.6823h12.3164v-4.73939h-12.1777c-2.65728 0-4.57207.72737-5.8208 2.00385-1.24711 1.27482-1.7822 3.04867-1.7822 5.04456 0 1.6705.3724 3.4518 1.59003 4.8171 1.22394 1.3723 3.24924 2.266 6.42877 2.266h5.4412c1.3911 0 2.2142.3354 2.6904.7931.4739.4555.6584 1.0845.6584 1.7932 0 .7856-.2313 1.4205-.6817 1.8599-.451.4399-1.1653.7264-2.2165.7264zm5.5406-18.9792v4.08887h-11.9915c-2.11407 0-3.04982 1.14369-3.04982 2.77263 0 1.2328.5479 2.4136 2.48132 2.7045-1.92969-.2921-2.47672-1.4719-2.47672-2.7038 0-1.62894.93575-2.77263 3.04982-2.77263h11.9915v-4.08957zm-11.4324 13.4817c-.7411 0-1.4147-.0494-2.02639-.1419.61049.0921 1.28259.1412 2.02179.1412h5.4412c.3915 0 .7444.0257 1.062.0739-.3164-.0478-.6678-.0732-1.0574-.0732zm-7.278 9.9113v.0007h13.0312c5.3372 0 7.4513-2.9112 7.4513-6.8621 0-2.9601-1.1554-6.0546-5.7849-6.7518 4.6256.6986 5.7803 3.7919 5.7803 6.7511 0 3.9509-2.1141 6.8621-7.4513 6.8621zm34.249-23.71791c-3.4581 0-6.1995.98965-8.0719 3.0294-1.868 2.03497-2.8235 5.06371-2.8235 9.04431 0 3.963.9467 6.9666 2.8115 8.9804 1.8689 2.0183 4.6106 2.9894 8.0839 2.9894h3.1885c3.4734 0 6.215-.9711 8.084-2.9894 1.8648-2.0138 2.8114-5.0174 2.8114-8.9804 0-3.9806-.9555-7.00934-2.8235-9.04431-1.8724-2.03975-4.6138-3.0294-8.0719-3.0294zm3.1885 4.73939c2.2009 0 3.7016.55761 4.6646 1.69582.9741 1.1512 1.4568 2.9625 1.4568 5.6039 0 2.6594-.483 4.4608-1.4557 5.5983-.962 1.125-2.462 1.6667-4.6657 1.6667h-3.1885c-2.2217 0-3.7307-.5421-4.6968-1.6633-.9764-1.1331-1.4592-2.9253-1.4592-5.5671 0-2.658.4911-4.478 1.4736-5.6336.9718-1.14309 2.4815-1.70072 4.6824-1.70072zm19.2272-4.73939h-4.7393v15.64341c0 2.392.6203 4.5037 2.0794 6.0176 1.4614 1.5164 3.7152 2.3825 6.8751 2.3825h9.6478v-4.7394h-9.4052c-1.79 0-2.8883-.4308-3.5412-1.0722-.6516-.6401-.9166-1.5459-.9166-2.6231zm2.0997 23.56911c.65.0984 1.3543.1495 2.1155.1495h9.3229v-4.0896h-.0046v4.0889h-9.3229c-.7594 0-1.4622-.0509-2.1109-.1488zm1.0024-4.0342c-2.5981-.3938-3.427-1.9787-3.427-3.9261v-15.2839h-.0046v15.2832c0 1.9486.8298 3.5342 3.4316 3.9268zm22.9659-19.53491c-3.4581 0-6.1995.98965-8.0719 3.0294-1.868 2.03497-2.8234 5.06371-2.8234 9.04431 0 3.963.9466 6.9666 2.8114 8.9804 1.8689 2.0183 4.6106 2.9894 8.0839 2.9894h3.1885c3.4734 0 6.2151-.9711 8.084-2.9894 1.865-2.0138 2.811-5.0174 2.811-8.9804 0-3.9806-.955-7.00934-2.8231-9.04431-1.8724-2.03975-4.6138-3.0294-8.0719-3.0294zm3.1885 4.73939c2.2009 0 3.7016.55761 4.6647 1.69582.974 1.1512 1.4567 2.9625 1.4567 5.6039 0 2.6594-.4829 4.4608-1.4556 5.5983-.9621 1.125-2.4621 1.6667-4.6658 1.6667h-3.1885c-2.2217 0-3.7307-.5421-4.6968-1.6633-.9764-1.1331-1.4592-2.9253-1.4592-5.5671 0-2.658.4911-4.478 1.4736-5.6336.9718-1.14309 2.4815-1.70072 4.6824-1.70072zm21.228-.37111c.169.11917.32.31389.463.63008l6.822 14.92735c.494 1.3543 1.134 2.4939 2.095 3.2932.971.8078 2.237 1.2405 3.925 1.2405 1.863 0 3.298-.5296 4.268-1.5037.968-.9733 1.429-2.3474 1.429-3.9505v-19.00521h-4.774v18.83191c0 .3262-.105.5653-.269.7235-.165.1592-.425.2686-.793.2686-.318 0-.554-.0853-.738-.2168-.187-.1332-.337-.3268-.459-.5692l-6.82-14.92016c-.493-1.35281-1.123-2.49253-2.076-3.29229-.963-.80871-2.22-1.24145-3.908-1.24145-1.88 0-3.316.52922-4.281 1.49935-.965.96943-1.416 2.33515-1.416 3.92019v19.03986h4.739v-18.83192c0-.35319.102-.59831.263-.75588.161-.15814.424-.27084.833-.27084.316 0 .531.0669.697.18341zm12.103 19.68063c.372.0566.771.0856 1.202.0856 3.604 0 5.372-2.0448 5.372-5.1293v-18.6803h-.005v18.6796c0 3.0845-1.767 5.1293-5.372 5.1293-.428 0-.826-.0288-1.197-.0849zm.78-3.9207c-.594-.0904-.966-.4677-1.207-.9497l-6.828-14.93732c-.843-2.32027-2.054-3.88074-4.497-4.2486 2.44.36912 3.65 1.92909 4.493 4.24791l6.827 14.93731c.242.4833.615.8613 1.212.9504zm-13.272-16.24686c-.097-.01481-.201-.02208-.312-.02208-.936 0-1.421.51985-1.421 1.35163v18.50701h-4.085v.0007h4.089v-18.50702c0-.83177.486-1.35163 1.421-1.35163.11 0 .212.00705.308.02139zm-67.0534-3.39536c5.3595.80656 8.3012 4.64533 8.3012 11.58772 0 7.8326-3.743 11.6449-10.5705 11.6449h-3.1885c-.8176 0-1.591-.0547-2.319-.1644.7267.1093 1.4985.1637 2.3144.1637h3.1885c6.8275 0 10.5705-3.8123 10.5705-11.6449 0-6.9404-2.94-10.77896-8.2966-11.58702zm-.6994 4.0371c-.4841-.07291-1.007-.10861-1.5699-.10861h-3.1885c-4.5054 0-6.4809 2.28743-6.4809 7.65923 0 4.6508 1.4737 6.9332 4.8567 7.4433-3.3863-.5087-4.8613-2.7911-4.8613-7.444 0-5.3718 1.9755-7.65923 6.4809-7.65923h3.1885c.5647 0 1.0891.03594 1.5745.10931zm49.1831-4.0371c5.3595.80656 8.3017 4.64533 8.3017 11.58772 0 7.8326-3.7435 11.6449-10.571 11.6449h-3.1885c-.8176 0-1.591-.0547-2.319-.1644.7267.1093 1.4985.1637 2.3144.1637h3.1885c6.8275 0 10.5706-3.8123 10.5706-11.6449 0-6.9404-2.9401-10.77896-8.2967-11.58702zm-.6991 4.03714c-.4842-.07293-1.0071-.10865-1.5702-.10865h-3.1885c-4.5054 0-6.4809 2.28743-6.4809 7.65923 0 4.6508 1.4737 6.9332 4.8568 7.4433-3.3864-.5087-4.8614-2.7911-4.8614-7.444 0-5.3718 1.9755-7.65923 6.4809-7.65923h3.1885c.5648 0 1.0893.03595 1.5748.10935z" fill="#d0df86" fill-rule="evenodd"/><g fill="#8f8f8f"><path d="m136.791 29.0399c.77 0 1.377-.6071 1.377-1.3771s-.607-1.3771-1.377-1.3771-1.377.6071-1.377 1.3771.607 1.3771 1.377 1.3771z"/><path d="m146.646 29.1287c3.376 0 5.819-1.8509 5.819-4.4718v-.0148c0-2.1618-1.17-3.3612-4.235-4.1016l-2.325-.5479c-2.028-.4886-2.858-1.2734-2.858-2.5024v-.0148c0-1.5695 1.392-2.6505 3.48-2.6505 2.147 0 3.509 1.1698 3.761 2.9615l.015.1036h1.881l-.015-.1629c-.252-2.6504-2.355-4.5606-5.642-4.5606-3.213 0-5.478 1.8213-5.478 4.383v.0148c0 2.1322 1.391 3.4056 4.294 4.1016l2.324.5626c2.059.4887 2.799 1.2142 2.799 2.5469v.0148c0 1.614-1.481 2.6801-3.806 2.6801-2.324 0-3.761-1.155-4.072-2.9318l-.029-.1333h-1.955l.015.1333c.296 2.7245 2.532 4.5902 6.027 4.5902z"/><path d="m161.046 29.1287c4.19 0 7.019-3.0799 7.019-7.9811v-.0296c0-4.9012-2.843-7.9515-7.019-7.9515-4.191 0-7.019 3.0651-7.019 7.9515v.0296c0 4.8864 2.814 7.9663 7.019 7.9811zm.015-1.7473c-3.036-.0148-5.02-2.3247-5.02-6.2338v-.0296c0-3.8795 1.999-6.2042 5.005-6.2042s5.02 2.3099 5.02 6.2042v.0296c0 3.8943-1.999 6.2338-5.005 6.2338z"/><path d="m171.167 28.8474h1.955v-13.7559h3.302v-1.6436h-3.317v-2.1471c0-1.70281.814-2.45798 2.31-2.45798.399 0 .784.02961 1.11.08884v-1.61398c-.34-.05923-.888-.11846-1.436-.11846-2.577 0-3.924 1.28823-3.924 4.07198v2.1767h-2.147v1.6436h2.147z"/><path d="m183.361 29.1287c.474 0 .977-.0592 1.288-.1185v-1.5991c-.222.0296-.533.074-.888.074-1.437 0-2.162-.5775-2.162-2.2803v-10.1133h3.05v-1.6436h-3.05v-4.16086h-2.014v4.16086h-2.265v1.6436h2.265v10.1429c0 2.6949 1.244 3.8943 3.776 3.8943z"/><path d="m190.062 28.8474h2.073l3.82-12.7787h.044l3.835 12.7787h2.073l4.368-15.3995h-1.969l-3.45 13.208h-.044l-3.835-13.208h-1.985l-3.835 13.208h-.044l-3.45-13.208h-1.984z"/><path d="m212.221 29.1287c2.28 0 4.309-1.2586 5.153-3.0947h.059v2.8134h1.955v-10.5428c0-3.1539-2.207-5.1381-5.731-5.1381-3.48 0-5.671 1.8953-5.967 4.5458l-.015.1777h1.895l.03-.148c.326-1.7473 1.792-2.8282 4.028-2.8282 2.398 0 3.805 1.3474 3.805 3.5685v1.3327l-4.798.2961c-3.538.2369-5.523 1.8213-5.523 4.4422v.0296c0 2.7245 2.073 4.5458 5.109 4.5458zm-3.11-4.5458v-.0296c0-1.6881 1.348-2.7394 3.761-2.8874l4.561-.311v1.7028c0 2.458-2.117 4.3534-4.812 4.3534-2.088 0-3.51-1.1402-3.51-2.8282z"/><path d="m222.371 28.8474h1.955v-9.5359c0-2.6061 1.392-4.2645 3.583-4.2645.667 0 1.215.1037 1.466.2073v-1.9101c-.237-.074-.696-.1777-1.214-.1777-1.866 0-3.228 1.1698-3.776 3.0503h-.059v-2.7689h-1.955z"/><path d="m236.535 29.1287c3.331 0 5.789-1.9101 6.323-4.5458l.029-.1481h-1.94l-.029.1333c-.504 1.6732-2.073 2.8133-4.339 2.8133-3.035 0-5.005-2.0878-5.064-5.76h11.565v-.7699c0-4.6051-2.592-7.685-6.708-7.685s-6.841 3.1836-6.841 8.0107v.0148c0 4.8716 2.68 7.9367 7.004 7.9367zm-.178-14.2149c2.636 0 4.531 1.7916 4.753 5.1529h-9.565c.237-3.2724 2.191-5.1529 4.812-5.1529z"/></g></svg>

<svg width="247" height="33" viewBox="0 0 247 33" fill="none" xmlns="http://www.w3.org/2000/svg">
<path fill-rule="evenodd" clip-rule="evenodd" d="M17.9106 23.72H4.41589V28.4594H17.772C20.4983 28.4594 22.4565 27.7148 23.7313 26.4123C25.0045 25.1114 25.5482 23.3028 25.5482 21.2724C25.5482 19.5503 25.1673 17.7336 23.9229 16.3463C22.6725 14.9524 20.6038 14.0506 17.3561 14.0506H11.8802C10.5603 14.0506 9.79022 13.7249 9.34845 13.2904C8.9076 12.8569 8.73939 12.2615 8.73939 11.603C8.73939 10.8496 8.95474 10.2499 9.37434 9.83758C9.79423 9.42498 10.4642 9.15528 11.4643 9.15528H23.7807V4.41589H11.603C8.94572 4.41589 7.03093 5.14326 5.7822 6.41974C4.53509 7.69456 4 9.46841 4 11.4643C4 13.1348 4.3724 14.9161 5.59003 16.2814C6.81397 17.6537 8.83927 18.5474 12.0188 18.5474H17.46C18.8511 18.5474 19.6742 18.8828 20.1504 19.3405C20.6243 19.796 20.8088 20.425 20.8088 21.1337C20.8088 21.9193 20.5775 22.5542 20.1271 22.9936C19.6761 23.4335 18.9618 23.72 17.9106 23.72ZM23.4512 4.7408V8.82967H11.4597C9.34563 8.82967 8.40988 9.97336 8.40988 11.6023C8.40988 12.8351 8.95778 14.0159 10.8912 14.3068C8.96151 14.0147 8.41448 12.8349 8.41448 11.603C8.41448 9.97406 9.35023 8.83037 11.4643 8.83037H23.4558V4.7408H23.4512ZM12.0188 18.2225C11.2777 18.2225 10.6041 18.1731 9.99241 18.0806C10.6029 18.1727 11.275 18.2218 12.0142 18.2218H17.4554C17.8469 18.2218 18.1998 18.2475 18.5174 18.2957C18.201 18.2479 17.8496 18.2225 17.46 18.2225H12.0188ZM4.7408 28.1338V28.1345H17.772C23.1092 28.1345 25.2233 25.2233 25.2233 21.2724C25.2233 18.3123 24.0679 15.2178 19.4384 14.5206C24.064 15.2192 25.2187 18.3125 25.2187 21.2717C25.2187 25.2226 23.1046 28.1338 17.7674 28.1338H4.7408ZM38.9898 4.41589C35.5317 4.41589 32.7903 5.40554 30.9179 7.44529C29.0499 9.48026 28.0944 12.509 28.0944 16.4896C28.0944 20.4526 29.0411 23.4562 30.9059 25.47C32.7748 27.4883 35.5165 28.4594 38.9898 28.4594H42.1783C45.6517 28.4594 48.3933 27.4883 50.2623 25.47C52.1271 23.4562 53.0737 20.4526 53.0737 16.4896C53.0737 12.509 52.1182 9.48026 50.2502 7.44529C48.3778 5.40554 45.6364 4.41589 42.1783 4.41589H38.9898ZM42.1783 9.15528C44.3792 9.15528 45.8799 9.71289 46.8429 10.8511C47.817 12.0023 48.2997 13.8136 48.2997 16.455C48.2997 19.1144 47.8167 20.9158 46.844 22.0533C45.882 23.1783 44.382 23.72 42.1783 23.72H38.9898C36.7681 23.72 35.2591 23.1779 34.293 22.0567C33.3166 20.9236 32.8338 19.1314 32.8338 16.4896C32.8338 13.8316 33.3249 12.0116 34.3074 10.856C35.2792 9.71291 36.7889 9.15528 38.9898 9.15528H42.1783ZM61.4055 4.41589H56.6662V20.0593C56.6662 22.4513 57.2865 24.563 58.7456 26.0769C60.207 27.5933 62.4608 28.4594 65.6207 28.4594H75.2685V23.72H65.8633C64.0733 23.72 62.975 23.2892 62.3221 22.6478C61.6705 22.0077 61.4055 21.1019 61.4055 20.0247V4.41589ZM63.5052 27.985C64.1552 28.0834 64.8595 28.1345 65.6207 28.1345H74.9436V24.0449H74.939V28.1338H65.6161C64.8567 28.1338 64.1539 28.0829 63.5052 27.985ZM64.5076 23.9508C61.9095 23.557 61.0806 21.9721 61.0806 20.0247V4.7408H61.076V20.024C61.076 21.9726 61.9058 23.5582 64.5076 23.9508ZM87.4735 4.41589C84.0154 4.41589 81.274 5.40554 79.4016 7.44529C77.5336 9.48026 76.5782 12.509 76.5782 16.4896C76.5782 20.4526 77.5248 23.4562 79.3896 25.47C81.2585 27.4883 84.0002 28.4594 87.4735 28.4594H90.662C94.1354 28.4594 96.8771 27.4883 98.746 25.47C100.611 23.4562 101.557 20.4526 101.557 16.4896C101.557 12.509 100.602 9.48026 98.7339 7.44529C96.8615 5.40554 94.1201 4.41589 90.662 4.41589H87.4735ZM90.662 9.15528C92.8629 9.15528 94.3636 9.71289 95.3267 10.8511C96.3007 12.0023 96.7834 13.8136 96.7834 16.455C96.7834 19.1144 96.3005 20.9158 95.3278 22.0533C94.3657 23.1783 92.8657 23.72 90.662 23.72H87.4735C85.2518 23.72 83.7428 23.1779 82.7767 22.0567C81.8003 20.9236 81.3175 19.1314 81.3175 16.4896C81.3175 13.8316 81.8086 12.0116 82.7911 10.856C83.7629 9.71291 85.2726 9.15528 87.4735 9.15528H90.662ZM111.89 8.78417C112.059 8.90334 112.21 9.09806 112.353 9.41425L119.175 24.3416C119.669 25.6959 120.309 26.8355 121.27 27.6348C122.241 28.4426 123.507 28.8753 125.195 28.8753C127.058 28.8753 128.493 28.3457 129.463 27.3716C130.431 26.3983 130.892 25.0242 130.892 23.4211V4.41589H126.118V23.2478C126.118 23.574 126.013 23.8131 125.849 23.9713C125.684 24.1305 125.424 24.2399 125.056 24.2399C124.738 24.2399 124.502 24.1546 124.318 24.0231C124.131 23.8899 123.981 23.6963 123.859 23.4539L117.039 8.53374C116.546 7.18093 115.916 6.04121 114.963 5.24145C114 4.43274 112.743 4 111.055 4C109.175 4 107.739 4.52922 106.774 5.49935C105.809 6.46878 105.358 7.8345 105.358 9.41954V28.4594H110.097V9.62748C110.097 9.27429 110.199 9.02917 110.36 8.8716C110.521 8.71346 110.784 8.60076 111.193 8.60076C111.509 8.60076 111.724 8.66766 111.89 8.78417ZM123.993 28.4648C124.365 28.5214 124.764 28.5504 125.195 28.5504C128.799 28.5504 130.567 26.5056 130.567 23.4211V4.7408H130.562V23.4204C130.562 26.5049 128.795 28.5497 125.19 28.5497C124.762 28.5497 124.364 28.5209 123.993 28.4648ZM124.773 24.5441C124.179 24.4537 123.807 24.0764 123.566 23.5944L116.738 8.65708C115.895 6.33681 114.684 4.77634 112.241 4.40848C114.681 4.7776 115.891 6.33757 116.734 8.65639L123.561 23.5937C123.803 24.077 124.176 24.455 124.773 24.5441ZM111.501 8.29724C111.404 8.28243 111.3 8.27516 111.189 8.27516C110.253 8.27516 109.768 8.79501 109.768 9.62679V28.1338H105.683V28.1345H109.772V9.62748C109.772 8.79571 110.258 8.27585 111.193 8.27585C111.303 8.27585 111.405 8.2829 111.501 8.29724ZM44.4476 4.90188C49.8071 5.70844 52.7488 9.54721 52.7488 16.4896C52.7488 24.3222 49.0058 28.1345 42.1783 28.1345H38.9898C38.1722 28.1345 37.3988 28.0798 36.6708 27.9701C37.3975 28.0794 38.1693 28.1338 38.9852 28.1338H42.1737C49.0012 28.1338 52.7442 24.3215 52.7442 16.4889C52.7442 9.5485 49.8042 5.70994 44.4476 4.90188ZM43.7482 8.93898C43.2641 8.86607 42.7412 8.83037 42.1783 8.83037H38.9898C34.4844 8.83037 32.5089 11.1178 32.5089 16.4896C32.5089 21.1404 33.9826 23.4228 37.3656 23.9329C33.9793 23.4242 32.5043 21.1418 32.5043 16.4889C32.5043 11.1171 34.4798 8.82967 38.9852 8.82967H42.1737C42.7384 8.82967 43.2628 8.86561 43.7482 8.93898ZM92.9313 4.90188C98.2908 5.70844 101.233 9.54721 101.233 16.4896C101.233 24.3222 97.4895 28.1345 90.662 28.1345H87.4735C86.6559 28.1345 85.8825 28.0798 85.1545 27.9701C85.8812 28.0794 86.653 28.1338 87.4689 28.1338H90.6574C97.4849 28.1338 101.228 24.3215 101.228 16.4889C101.228 9.5485 98.2879 5.70994 92.9313 4.90188ZM92.2322 8.93902C91.748 8.86609 91.2251 8.83037 90.662 8.83037H87.4735C82.9681 8.83037 80.9926 11.1178 80.9926 16.4896C80.9926 21.1404 82.4663 23.4228 85.8494 23.9329C82.463 23.4242 80.988 21.1418 80.988 16.4889C80.988 11.1171 82.9635 8.82967 87.4689 8.82967H90.6574C91.2222 8.82967 91.7467 8.86562 92.2322 8.93902Z" fill="#D0DF86"/>
<path d="M136.791 29.0399C137.561 29.0399 138.168 28.4328 138.168 27.6628C138.168 26.8928 137.561 26.2857 136.791 26.2857C136.021 26.2857 135.414 26.8928 135.414 27.6628C135.414 28.4328 136.021 29.0399 136.791 29.0399Z" fill="#8F8F8F"/>
<path d="M146.646 29.1287C150.022 29.1287 152.465 27.2778 152.465 24.6569V24.6421C152.465 22.4803 151.295 21.2809 148.23 20.5405L145.905 19.9926C143.877 19.504 143.047 18.7192 143.047 17.4902V17.4754C143.047 15.9059 144.439 14.8249 146.527 14.8249C148.674 14.8249 150.036 15.9947 150.288 17.7864L150.303 17.89H152.184L152.169 17.7271C151.917 15.0767 149.814 13.1665 146.527 13.1665C143.314 13.1665 141.049 14.9878 141.049 17.5495V17.5643C141.049 19.6965 142.44 20.9699 145.343 21.6659L147.667 22.2285C149.726 22.7172 150.466 23.4427 150.466 24.7754V24.7902C150.466 26.4042 148.985 27.4703 146.66 27.4703C144.336 27.4703 142.899 26.3153 142.588 24.5385L142.559 24.4052H140.604L140.619 24.5385C140.915 27.263 143.151 29.1287 146.646 29.1287Z" fill="#8F8F8F"/>
<path d="M161.046 29.1287C165.236 29.1287 168.065 26.0488 168.065 21.1476V21.118C168.065 16.2168 165.222 13.1665 161.046 13.1665C156.855 13.1665 154.027 16.2316 154.027 21.118V21.1476C154.027 26.034 156.841 29.1139 161.046 29.1287ZM161.061 27.3814C158.025 27.3666 156.041 25.0567 156.041 21.1476V21.118C156.041 17.2385 158.04 14.9138 161.046 14.9138C164.052 14.9138 166.066 17.2237 166.066 21.118V21.1476C166.066 25.0419 164.067 27.3814 161.061 27.3814Z" fill="#8F8F8F"/>
<path d="M171.167 28.8474H173.122V15.0915H176.424V13.4479H173.107V11.3008C173.107 9.59799 173.921 8.84282 175.417 8.84282C175.816 8.84282 176.201 8.87243 176.527 8.93166V7.31768C176.187 7.25845 175.639 7.19922 175.091 7.19922C172.514 7.19922 171.167 8.48745 171.167 11.2712V13.4479H169.02V15.0915H171.167V28.8474Z" fill="#8F8F8F"/>
<path d="M183.361 29.1287C183.835 29.1287 184.338 29.0695 184.649 29.0102V27.4111C184.427 27.4407 184.116 27.4851 183.761 27.4851C182.324 27.4851 181.599 26.9076 181.599 25.2048V15.0915H184.649V13.4479H181.599V9.28704H179.585V13.4479H177.32V15.0915H179.585V25.2344C179.585 27.9293 180.829 29.1287 183.361 29.1287Z" fill="#8F8F8F"/>
<path d="M190.062 28.8474H192.135L195.955 16.0687H195.999L199.834 28.8474H201.907L206.275 13.4479H204.306L200.856 26.6559H200.812L196.977 13.4479H194.992L191.157 26.6559H191.113L187.663 13.4479H185.679L190.062 28.8474Z" fill="#8F8F8F"/>
<path d="M212.221 29.1287C214.501 29.1287 216.53 27.8701 217.374 26.034H217.433V28.8474H219.388V18.3046C219.388 15.1507 217.181 13.1665 213.657 13.1665C210.177 13.1665 207.986 15.0618 207.69 17.7123L207.675 17.89H209.57L209.6 17.742C209.926 15.9947 211.392 14.9138 213.628 14.9138C216.026 14.9138 217.433 16.2612 217.433 18.4823V19.815L212.635 20.1111C209.097 20.348 207.112 21.9324 207.112 24.5533V24.5829C207.112 27.3074 209.185 29.1287 212.221 29.1287ZM209.111 24.5829V24.5533C209.111 22.8652 210.459 21.8139 212.872 21.6659L217.433 21.3549V23.0577C217.433 25.5157 215.316 27.4111 212.621 27.4111C210.533 27.4111 209.111 26.2709 209.111 24.5829Z" fill="#8F8F8F"/>
<path d="M222.371 28.8474H224.326V19.3115C224.326 16.7054 225.718 15.047 227.909 15.047C228.576 15.047 229.124 15.1507 229.375 15.2543V13.3442C229.138 13.2702 228.679 13.1665 228.161 13.1665C226.295 13.1665 224.933 14.3363 224.385 16.2168H224.326V13.4479H222.371V28.8474Z" fill="#8F8F8F"/>
<path d="M236.535 29.1287C239.866 29.1287 242.324 27.2186 242.858 24.5829L242.887 24.4348H240.947L240.918 24.5681C240.414 26.2413 238.845 27.3814 236.579 27.3814C233.544 27.3814 231.574 25.2936 231.515 21.6214H243.08V20.8515C243.08 16.2464 240.488 13.1665 236.372 13.1665C232.256 13.1665 229.531 16.3501 229.531 21.1772V21.192C229.531 26.0636 232.211 29.1287 236.535 29.1287ZM236.357 14.9138C238.993 14.9138 240.888 16.7054 241.11 20.0667H231.545C231.782 16.7943 233.736 14.9138 236.357 14.9138Z" fill="#8F8F8F"/>
</svg>
